svg/fluentui-system-icons/ic_fluent_cube_tree_20_regular.svg

<svg width="20" height="20" viewBox="0 0 20 20" fill="none" xmlns="http://www.w3.org/2000/svg">
<path d="M8.65811 4.52651C8.39614 4.43919 8.11298 4.58077 8.02566 4.84274C7.93833 5.10471 8.07991 5.38787 8.34189 5.4752L9.5 5.86123V7.00073C9.5 7.27687 9.72386 7.50073 10 7.50073C10.2761 7.50073 10.5 7.27687 10.5 7.00073V5.86123L11.6581 5.4752C11.9201 5.38787 12.0617 5.10471 11.9743 4.84274C11.887 4.58077 11.6039 4.43919 11.3419 4.52651L10 4.97381L8.65811 4.52651ZM10.4273 2.06606C10.1485 1.98319 9.85153 1.98319 9.57267 2.06607L6.70796 2.91748C6.28798 3.04229 6 3.42832 6 3.86645V8.12782C6 8.57041 6.29094 8.96036 6.71521 9.08641L9.50719 9.9159C9.50246 9.94351 9.5 9.9719 9.5 10.0009V11.0009H8C6.89543 11.0009 6 11.8963 6 13.0009V13.0509C4.85888 13.2825 4 14.2914 4 15.5009C4 16.8816 5.11929 18.0009 6.5 18.0009C7.88071 18.0009 9 16.8816 9 15.5009C9 14.2914 8.14112 13.2825 7 13.0509V13.0009C7 12.4486 7.44772 12.0009 8 12.0009H12C12.5523 12.0009 13 12.4486 13 13.0009V13.0509C11.8589 13.2825 11 14.2914 11 15.5009C11 16.8816 12.1193 18.0009 13.5 18.0009C14.8807 18.0009 16 16.8816 16 15.5009C16 14.2914 15.1411 13.2825 14 13.0509V13.0009C14 11.8963 13.1046 11.0009 12 11.0009H10.5V10.0009C10.5 9.9719 10.4975 9.94351 10.4928 9.9159L13.2848 9.08641C13.7091 8.96036 14 8.57042 14 8.12782V3.87389C14 3.43133 13.7091 3.0414 13.2849 2.91532L10.4273 2.06606ZM9.85756 3.02463C9.95051 2.997 10.0495 2.997 10.1424 3.02463L13 3.87389V8.12782L10.1424 8.97681C10.0495 9.00442 9.95053 9.00442 9.8576 8.97681L7 8.12782V3.87391L9.85756 3.02463ZM5 15.5009C5 14.6724 5.67157 14.0009 6.5 14.0009C7.32843 14.0009 8 14.6724 8 15.5009C8 16.3293 7.32843 17.0009 6.5 17.0009C5.67157 17.0009 5 16.3293 5 15.5009ZM13.5 14.0009C14.3284 14.0009 15 14.6724 15 15.5009C15 16.3293 14.3284 17.0009 13.5 17.0009C12.6716 17.0009 12 16.3293 12 15.5009C12 14.6724 12.6716 14.0009 13.5 14.0009Z" fill="#212121"/>
</svg>

<svg xmlns="http://www.w3.org/2000/svg" width="20" height="20"><path d="M8.658 4.527a.5.5 0 0 0-.316.948l1.158.386v1.14a.5.5 0 0 0 1 0V5.86l1.158-.386a.5.5 0 1 0-.316-.948L10 4.974l-1.342-.447Zm1.77-2.46a1.5 1.5 0 0 0-.855 0l-2.865.85a.99.99 0 0 0-.708.95v4.26a1 1 0 0 0 .715.96l2.792.829A.503.503 0 0 0 9.5 10v1H8a2 2 0 0 0-2 2v.05a2.5 2.5 0 1 0 1 0V13a1 1 0 0 1 1-1h4a1 1 0 0 1 1 1v.05a2.5 2.5 0 1 0 1 0V13a2 2 0 0 0-2-2h-1.5v-1a.506.506 0 0 0-.007-.085l2.792-.83A1 1 0 0 0 14 8.128V3.874a1 1 0 0 0-.715-.959l-2.858-.849Zm-.57.958a.5.5 0 0 1 .284 0L13 3.874v4.254l-2.858.849a.5.5 0 0 1-.284 0L7 8.127V3.875l2.858-.85ZM5 15.5a1.5 1.5 0 1 1 3 0 1.5 1.5 0 0 1-3 0Zm8.5-1.5a1.5 1.5 0 1 1 0 3 1.5 1.5 0 0 1 0-3Z"/></svg>
